X:1
T:Title
L:1/8
M:6/8
I:linebreak $
K:D
V:1 treble nm="Voice"
V:1
"D" A2 d fed | A2 d fed |"A" cee"D" afa |"G" gfe"D" fed |"D" A2 d fed | A2 d fed |"A" cee"D" afa |1 %7
"G" gfe"D" dAF :|2"G" gfe"D" d2 d |:"D" Adf"A" e2 e | Ace"D" d2 d |"A" c2 c"G" B2 B | %12
"A" c2 B B2 A |"D" Adf"A" e2 e | Ace"D" d2 d |"A" c2 e"D" afa |1"G" gfe"D" d2 d :|2 %17
"G" gfe"D" dAF |] %18
